packages/core/src/svgs/zcn.svg

<svg width="24" height="24" viewBox="0 0 24 24" fill="none" xmlns="http://www.w3.org/2000/svg">
<g clip-path="url(#clip0_31_21180)">
<path d="M0 0H24V24H0V0Z" fill="url(#paint0_linear_31_21180)"/>
<path d="M15.6497 6.85821C15.2096 6.30246 14.6434 5.85965 13.9979 5.5665C13.369 5.2868 12.6883 5.14253 11.9999 5.14307C11.3087 5.14307 10.6264 5.2875 10.0019 5.5665C9.35616 5.85965 8.78952 6.30244 8.34895 6.85821C7.85279 7.49649 7.4821 8.22302 7.25652 8.99935C6.97398 9.97853 6.83992 10.9945 6.85881 12.0135C6.84038 13.0279 6.97452 14.0394 7.25652 15.0186C7.48153 15.7947 7.85276 16.5205 8.35023 17.1572C8.79106 17.7106 9.35782 18.1505 10.0032 18.4404C10.6289 18.7146 11.3104 18.8574 11.9999 18.8574C12.6899 18.8574 13.3714 18.7151 13.9967 18.4404C14.6416 18.1497 15.2082 17.7099 15.6497 17.1572C16.1463 16.52 16.5174 15.7943 16.7434 15.0186C17.0254 14.0394 17.1591 13.0279 17.1411 12.0135C17.16 10.9945 17.0259 9.97853 16.7434 8.99935C16.5174 8.22294 16.1463 7.4964 15.6497 6.85821ZM11.9931 18.0002C10.8947 18.0045 9.83481 17.6025 9.11995 16.7599L15.2657 7.74021C16.0298 9.00278 16.3131 10.5452 16.2857 12.0058C16.3358 14.6535 15.1757 18.0135 11.9991 17.9998L11.9931 18.0002ZM7.71424 12.0062C7.67009 9.61821 8.45566 6.70821 11.0965 6.09235C11.9427 5.89493 12.8303 5.98292 13.6212 6.34264C14.0661 6.55178 14.4741 6.7545 14.7934 7.11364L8.66266 16.1171C7.94395 14.8691 7.68809 13.4308 7.71424 12.0062Z" fill="white"/>
</g>
<defs>
<linearGradient id="paint0_linear_31_21180" x1="4.46486" y1="4.16229" x2="29.2059" y2="32.5787" gradientUnits="userSpaceOnUse">
<stop stop-color="#1A1E21"/>
<stop offset="1" stop-color="#06060A"/>
</linearGradient>
<clipPath id="clip0_31_21180">
<rect width="24" height="24" fill="white"/>
</clipPath>
</defs>
</svg>

<svg xmlns="http://www.w3.org/2000/svg" width="24" height="24" fill="none" viewBox="0 0 24 24"><g clip-path="url(#a)"><path fill="url(#b)" d="M0 0h24v24H0z"/><path fill="#fff" d="M15.65 6.858a4.46 4.46 0 0 0-1.652-1.291A4.9 4.9 0 0 0 12 5.142c-.691 0-1.374.144-1.998.423a4.46 4.46 0 0 0-1.653 1.292A6.4 6.4 0 0 0 7.257 9a10.2 10.2 0 0 0-.398 3.015 10.2 10.2 0 0 0 .398 3.005 6.3 6.3 0 0 0 1.093 2.138c.441.554 1.008.994 1.653 1.283a4.98 4.98 0 0 0 3.994 0 4.46 4.46 0 0 0 1.653-1.283 6.4 6.4 0 0 0 1.093-2.138c.282-.98.416-1.991.398-3.005a10.2 10.2 0 0 0-.398-3.015 6.4 6.4 0 0 0-1.093-2.14M11.993 18c-1.098.005-2.158-.398-2.873-1.24l6.146-9.02c.764 1.263 1.047 2.805 1.02 4.266.05 2.647-1.11 6.008-4.287 5.994zm-4.279-5.994c-.044-2.388.742-5.298 3.383-5.914a3.94 3.94 0 0 1 2.524.25c.445.21.853.413 1.172.772l-6.13 9.003c-.72-1.248-.975-2.686-.949-4.11"/></g><defs><linearGradient id="b" x1="4.465" x2="29.206" y1="4.162" y2="32.579" gradientUnits="userSpaceOnUse"><stop stop-color="#1A1E21"/><stop offset="1" stop-color="#06060A"/></linearGradient><clipPath id="a"><path fill="#fff" d="M0 0h24v24H0z"/></clipPath></defs></svg>
